/* XPM */
static char *product_logo_32[] = {
/* columns rows colors chars-per-pixel */
"32 32 101 2 ",
"   c None",
".  c black",
"X  c #010101",
"o  c #020202",
"O  c gray1",
"+  c #040404",
"@  c #070707",
"#  c #0C0C0C",
"$  c #101010",
"%  c gray8",
"&  c #151515",
"*  c #191919",
"=  c gray14",
"-  c #282828",
";  c gray16",
":  c gray18",
">  c #3C3C3C",
",  c #3F3F3F",
"<  c gray25",
"1  c #444444",
"2  c gray28",
"3  c #4E4E4E",
"4  c #515151",
"5  c #535353",
"6  c gray34",
"7  c gray35",
"8  c #5A5A5A",
"9  c #5B5B5B",
"0  c gray36",
"q  c #5D5D5D",
"w  c #5F5F5F",
"e  c gray38",
"r  c gray40",
"t  c DimGray",
"y  c #6F6F6F",
"u  c gray44",
"i  c #747474",
"p  c gray48",
"a  c #7C7C7C",
"s  c gray52",
"d  c #8B8B8B",
"f  c gray55",
"g  c #959595",
"h  c #9D9D9D",
"j  c gray63",
"k  c #AAAAAA",
"l  c #AEAEAE",
"z  c #B1B1B1",
"x  c #B4B4B4",
"c  c gray71",
"v  c #BCBCBC",
"b  c gray",
"n  c gray76",
"m  c #C5C5C5",
"M  c gray79",
"N  c gray80",
"B  c #CDCDCD",
"V  c #D0D0D0",
"C  c gray82",
"Z  c LightGray",
"A  c gray83",
"S  c #D5D5D5",
"D  c gray84",
"F  c #D8D8D8",
"G  c gray85",
"H  c #DADADA",
"J  c gray86",
"K  c gainsboro",
"L  c #DDDDDD",
"P  c #DFDFDF",
"I  c gray88",
"U  c #E1E1E1",
"Y  c #E2E2E2",
"T  c gray89",
"R  c #E4E4E4",
"E  c gray90",
"W  c #E6E6E6",
"Q  c #E7E7E7",
"!  c gray91",
"~  c #E9E9E9",
"^  c #EAEAEA",
"/  c gray92",
"(  c #ECECEC",
")  c gray93",
"_  c #EEEEEE",
"`  c #EFEFEF",
"'  c gray94",
"]  c #F1F1F1",
"[  c gray95",
"{  c #F3F3F3",
"}  c #F4F4F4",
"|  c gray96",
" . c #F6F6F6",
".. c gray97",
"X. c #F8F8F8",
"o. c #F9F9F9",
"O. c #FBFBFB",
"+. c gray99",
"@. c #FDFDFD",
"#. c #FEFEFE",
"$. c white",
/* pixels */
"                                                                ",
"              . . . . . . . . . . . . . . . . . .               ",
"        . . . . . . . . . . . . . . . . . . . . . . . .         ",
"      . . . . . . . . . . . . . . . . . . . . . . . . . .       ",
"    . . . . . . . . . . . . . . . . . . . . . . . . . . . .     ",
"    . . . . . . . . . . . . . . . . . . . . . . . . . . . .     ",
"    . . . . . . . . . . . . . . . . . . . . . . . . . . . .     ",
"  . . . . . . . . . . . . . . . . . . . . . . . . . . . . . .   ",
"  . . . . . 2 q q q q q 5 q q q q q q 5 q q q q 5 2 . . . . .   ",
"  . . . . . f $.$.$.$.$.$.{ $.$.$.$.{ $.$.$.$.$.$.s . . . . .   ",
"  . . . . . $ W K z A W W M K W W K M W W K v W W # . . . . .   ",
"  . . . . . . t $.A W ! { ! K ! ! K ! ! W W W $.q . . . . . .   ",
"  . . . . . . . A { W ! M W ! $.{ W W m W { $.M . . . . . . .   ",
"  . . . . . . . 2 $.K $.{ { k a a z { W $.! $.> . . . . . . .   ",
"  . . . . . . . . k ! M W W k . . v K K A ! j . . . . . . . .   ",
"  . . . . . . . . ; $.W { { $.3 r $.K $.! $.= . . . . . . . .   ",
"  . . . . . . . . . g $.K $.W K K A $.! $.f . . . . . . . . .   ",
"  . . . . . . . . . $ { ! W W { ! A ! { ! $ . . . . . . . . .   ",
"  . . . . . . . . . . i $.m $.K M $.A $.r . . . . . . . . . .   ",
"  . . . . . . . . . . . M W { W W { ! m . . . . . . . . . . .   ",
"  . . . . . . . . . . . 2 $.W ! ! ! $.> . . . . . . . . . . .   ",
"  . . . . . . . . . . . . v $.A A $.z . . . . . . . . . . . .   ",
"  . . . . . . . . . . . . ; $.A K $.; . . . . . . . . . . . .   ",
"  . . . . . . . . . . . . . h $.$.g . . . . . . . . . . . . .   ",
"  . . . . . . . . . . . . . * ! W $ . . . . . . . . . . . . .   ",
"    . . . . . . . . . . . . . i t . . . . . . . . . . . . .     ",
"    . . . . . . . . . . . . . . . . . . . . . . . . . . . .     ",
"    . . . . . . . . . . . . . . . . . . . . . . . . . . . .     ",
"      . . . . . . . . . . . . . . . . . . . . . . . . . .       ",
"        . . . . . . . . . . . . . . . . . . . . . . . .         ",
"              . . . . . . . . . . . . . . . . . .               ",
"                                                                "
};
